Numix-GalliumOS/64/categories/applications-education.svg

<?xml version="1.0" encoding="UTF-8" standalone="no"?>
<svg
   xmlns:dc="http://purl.org/dc/elements/1.1/"
   xmlns:cc="http://creativecommons.org/ns#"
   xmlns:rdf="http://www.w3.org/1999/02/22-rdf-syntax-ns#"
   xmlns:svg="http://www.w3.org/2000/svg"
   xmlns="http://www.w3.org/2000/svg"
   xmlns:sodipodi="http://sodipodi.sourceforge.net/DTD/sodipodi-0.dtd"
   xmlns:inkscape="http://www.inkscape.org/namespaces/inkscape"
   viewBox="0 0 64 64"
   id="svg2"
   version="1.1"
   inkscape:version="0.91 r"
   sodipodi:docname="applications-education.svg"
   width="64"
   height="64">
  <metadata
     id="metadata20">
    <rdf:RDF>
      <cc:Work
         rdf:about="">
        <dc:format>image/svg+xml</dc:format>
        <dc:type
           rdf:resource="http://purl.org/dc/dcmitype/StillImage" />
        <dc:title />
      </cc:Work>
    </rdf:RDF>
  </metadata>
  <defs
     id="defs18" />
  <sodipodi:namedview
     pagecolor="#ffffff"
     bordercolor="#666666"
     borderopacity="1"
     objecttolerance="10"
     gridtolerance="10"
     guidetolerance="10"
     inkscape:pageopacity="0"
     inkscape:pageshadow="2"
     inkscape:window-width="1920"
     inkscape:window-height="1056"
     id="namedview16"
     showgrid="true"
     inkscape:zoom="10.439641"
     inkscape:cx="10.88473"
     inkscape:cy="12.813726"
     inkscape:window-x="0"
     inkscape:window-y="24"
     inkscape:window-maximized="1"
     inkscape:current-layer="svg2">
    <inkscape:grid
       type="xygrid"
       id="grid4148" />
  </sodipodi:namedview>
  <path
     style="opacity:1;fill:#89939b;fill-opacity:1;fill-rule:nonzero;stroke:none;stroke-width:1;stroke-linecap:round;stroke-linejoin:round;stroke-miterlimit:4;stroke-dasharray:none;stroke-dashoffset:0;stroke-opacity:1"
     d="M 5.3333339,22.666668 31.999998,12 58.666666,22.666668 31.999998,33.333334 Z"
     id="rect4138"
     inkscape:connector-curvature="0"
     sodipodi:nodetypes="ccccc" />
  <ellipse
     style="opacity:1;fill:#89939b;fill-opacity:1;fill-rule:nonzero;stroke:none;stroke-width:4;stroke-linecap:round;stroke-linejoin:miter;stroke-miterlimit:4;stroke-dasharray:none;stroke-dashoffset:0;stroke-opacity:1"
     id="path4166"
     cx="32"
     cy="46"
     rx="14"
     ry="6" />
  <path
     style="opacity:1;fill:#89939b;fill-opacity:1;fill-rule:nonzero;stroke:none;stroke-width:4;stroke-linecap:round;stroke-linejoin:miter;stroke-miterlimit:4;stroke-dasharray:none;stroke-dashoffset:0;stroke-opacity:1"
     d="M 18,30.964844 18,46 46,46 46,30.964844 32,36.5625 18,30.964844 Z"
     id="rect4188"
     inkscape:connector-curvature="0" />
  <rect
     style="opacity:1;fill:#89939b;fill-opacity:1;fill-rule:nonzero;stroke:none;stroke-width:4;stroke-linecap:round;stroke-linejoin:miter;stroke-miterlimit:4;stroke-dasharray:none;stroke-dashoffset:0;stroke-opacity:1"
     id="rect4200"
     width="2"
     height="10"
     x="52"
     y="24" />
  <circle
     style="opacity:1;fill:#89939b;fill-opacity:1;fill-rule:nonzero;stroke:none;stroke-width:4;stroke-linecap:round;stroke-linejoin:miter;stroke-miterlimit:4;stroke-dasharray:none;stroke-dashoffset:0;stroke-opacity:1"
     id="path4202"
     cx="53"
     cy="35.5"
     r="2.5" />
  <path
     style="fill:#89939b;fill-opacity:1;fill-rule:evenodd;stroke:none;stroke-width:1px;stroke-linecap:butt;stroke-linejoin:miter;stroke-opacity:1"
     d="M 52.333332,37.4 51,42 l 4,0 -1.333332,-4.6 z"
     id="path4204"
     inkscape:connector-curvature="0"
     sodipodi:nodetypes="ccccc" />
</svg>

<svg xmlns="http://www.w3.org/2000/svg" viewBox="0 0 64 64">
 <path d="m 5.333 22.667 26.667 -10.667 26.667 10.667 -26.667 10.667" style="fill:#89939b;opacity:1;fill-opacity:1;stroke:none;fill-rule:nonzero"/>
 <ellipse cx="32" cy="46" rx="14" ry="6" style="fill:#89939b;opacity:1;fill-opacity:1;stroke:none;fill-rule:nonzero"/>
 <path d="m 18 30.965 0 15.04 28 0 0 -15.04 -14 5.598 -14 -5.598" style="fill:#89939b;opacity:1;fill-opacity:1;stroke:none;fill-rule:nonzero"/>
 <rect width="2" height="10" x="52" y="24" style="fill:#89939b;opacity:1;fill-opacity:1;stroke:none;fill-rule:nonzero"/>
 <circle cx="53" cy="35.5" r="2.5" style="fill:#89939b;opacity:1;fill-opacity:1;stroke:none;fill-rule:nonzero"/>
 <path d="m 52.33 37.4 -1.333 4.6 l 4 0 -1.333 -4.6 z" style="fill:#89939b;fill-opacity:1;stroke:none;fill-rule:evenodd"/>
</svg>
